app/assets/images/heroicon/solid/hand-thumb-down.svg

<svg width="24" height="24" viewBox="0 0 24 24" fill="none" xmlns="http://www.w3.org/2000/svg">
<path d="M15.7303 4.5L16.7647 4.5C17.5455 5.68343 18 7.10114 18 8.625C18 10.1489 17.5455 11.5666 16.7647 12.75L16.6174 12.75C15.8111 12.75 15.0835 13.1958 14.5859 13.8303C13.8127 14.8162 12.8383 15.6366 11.7245 16.2298C11.0023 16.6144 10.3757 17.1857 10.0719 17.9454C9.85924 18.4769 9.75 19.0441 9.75 19.6166V20.25C9.75 20.6642 9.41421 21 9 21C7.75736 21 6.75 19.9926 6.75 18.75C6.75 17.5984 7.00956 16.5074 7.47337 15.5323C7.73896 14.974 7.36638 14.25 6.74809 14.25L3.62227 14.25C2.59564 14.25 1.6767 13.556 1.56801 12.5351C1.52306 12.1129 1.5 11.6841 1.5 11.25C1.5 8.40238 2.49188 5.78642 4.149 3.72878C4.5366 3.24749 5.13581 3 5.75377 3L9.76975 3C10.2534 3 10.7339 3.07798 11.1928 3.23093L14.3072 4.26908C14.7661 4.42203 15.2466 4.5 15.7303 4.5Z" fill="#0F172A"/>
<path d="M21.6685 13.0229C22.2052 11.6611 22.5 10.1775 22.5 8.625C22.5 7.40493 22.3179 6.22738 21.9794 5.11805C21.7201 4.26802 20.8958 3.75 20.0071 3.75L19.0993 3.75C18.6538 3.75 18.3786 4.24827 18.5758 4.6478C19.1675 5.84708 19.5 7.19722 19.5 8.625C19.5 10.3332 19.0241 11.9302 18.1977 13.2907C17.9527 13.6941 18.226 14.25 18.6979 14.25H19.7506C20.5827 14.25 21.3635 13.797 21.6685 13.0229Z" fill="#0F172A"/>
</svg>

<svg xmlns="http://www.w3.org/2000/svg" viewBox="0 0 24 24" fill="currentColor" aria-hidden="true">
  <path d="M15.73 4.5h1.035A7.465 7.465 0 0118 8.625a7.465 7.465 0 01-1.235 4.125h-.148c-.806 0-1.534.446-2.031 1.08a9.04 9.04 0 01-2.861 2.4c-.723.384-1.35.956-1.653 1.715a4.499 4.499 0 00-.322 1.672v.633A.75.75 0 019 21a2.25 2.25 0 01-2.25-2.25c0-1.152.26-2.243.723-3.218.266-.558-.107-1.282-.725-1.282H3.622c-1.026 0-1.945-.694-2.054-1.715A12.137 12.137 0 011.5 11.25c0-2.848.992-5.464 2.649-7.521C4.537 3.247 5.136 3 5.754 3H9.77a4.5 4.5 0 011.423.23l3.114 1.04a4.5 4.5 0 001.423.23zM21.669 13.023c.536-1.362.831-2.845.831-4.398 0-1.22-.182-2.398-.52-3.507-.26-.85-1.084-1.368-1.973-1.368H19.1c-.445 0-.72.498-.523.898.591 1.2.924 2.55.924 3.977a8.958 8.958 0 01-1.302 4.666c-.245.403.028.959.5.959h1.053c.832 0 1.612-.453 1.918-1.227z"/>
</svg>
